X:1
T:Title
%%score { ( 1 4 ) | ( 2 3 ) }
L:1/8
M:6/8
K:Bb
V:1 treble nm="Grand Piano"
V:4 treble 
V:2 bass 
V:3 bass 
V:1
 z3 z2[Q:1/4=100] F | [Fd]2 [Ec] [DB]2 [FA] | [EG]A[B,GB] [B,F]2 [DF] | [DF]2 [B,FB] [Fc]2 [Fd] | %4
 c3- c2 F | [Fd]2 [Ec] [DB]2 [FA] | [EG]A[B,GB] [B,F]2 [DF] | [B,EG]2 [EGc] [DFB]2 [CEA] | %8
[M:25/32] [DB]-[DB]/4- [DB]3- [DB]3/4[DB]/[F_A]3/4 | %9
[M:3/4] (7:8:6[EG]3/2-[EG]3/8[GB]3/4[Ge]3/8-[Ge]3/2[Ge]3/4 | %10
 (7:8:6[Fd]3/2-[Fd]3/8[Ac]3/4[GB]3/8-[GB]3/2[Gd]3/4 | %11
 (7:8:7[=Ed]3/2-[Ed]3/8[Ec]3/4[EB]3/4[FA]-[FA]/8[GB]3/4 | (3:2:4c4- c/ e4- e/ | %13
 (7:8:6d3/2-d3/8c3/4B3/8-B3/2[^FA]3/4 | z2 (3:2:2[GB]3/2[Ge]3/2- [Ge]-[Ge]/4 z/4 z/ | %15
 .B2 .dd3/4 z/4 z .c | [B,DB]4- [B,DB]-[B,DB]/4 z/4 z/ | %17
 (7:8:7[DFB]3/2-[D-FB]3/8[DB]3/4[Fd]3/4c-c/8B3/4 | %18
 (7:8:7[B,D-F-]3/4[F,DF]-[F,D-F-]/8[F,DF]3/4[DB]3/8-[DB]3/2B,3/4 | %19
 (7:8:7c3/2-c3/8c3/4c3/4B-B/8c3/4 | [Fd]4- [Fd]-[Fd]/4 z/4 z/ | %21
 (7:8:7[Fd]3/2-[Fd]3/8[Fd]3/4[Fd]3/4[Fc]-[Fc]/8[FB]3/4 | z2 z2 z .[Gc] | .B2 .dd3/4 z/4 z .c | %24
[M:5/8] [DB]-[DB]- [DB]3 |] %25
V:2
 z3 z2 F, | [B,,B,]2 [B,,B,] [B,,B,]2 [D,B,] | .[E,B,]3 z3 | B,,2 D, [C,A,]2 [B,,B,] | %4
 [F,A,F]3- [F,A,F]2 F, | [B,,B,]2 [B,,B,] [B,,B,]2 [D,B,] | .[E,B,]3 z3 | E,2 E, F,2 F, | %8
[M:25/32] [B,,B,]-[B,,B,]/4- [B,,B,]3- [B,,B,]3/4[B,,B,]-[B,,B,]/4 | %9
[M:3/4] (7:8:6[E,B,]3/2-[E,B,]3/8[E,B,]3/4[E,B,]3/8-[E,B,]3/2[E,B,]3/4 | %10
 (7:8:6[F,B,]3/2-[F,B,]3/8[F,E]3/4[G,D]3/8-[G,D]3/2[G,B,]3/4 | %11
 (7:8:6[C,C]3/2-[C,C]3/8[C,G,]3/4[C,C]3/8-[C,C]3/2[C,C]3/4 | %12
 (3:2:4[F,A,F]4- [F,A,F]/ [F,A,F]4- [F,A,F]/ | %13
 (7:8:6[B,F]3/2-[B,F]3/8[F,A,F]3/4[G,DF]3/8-[G,DF]3/2[K:bass][D,C]3/4 | %14
 z2 (3:2:2[E,E]3/2[E,B,]3/2- [E,B,]-[E,B,]/4 z/4 z/ | .[F,DF]2 .[F,B,F][F,B,F]3/4 z/4 z .[F,A,E] | %16
 B,,4- B,,-B,,/4 z/4 z/ | %17
 (7:8:7B,,3/2-B,,3/8-[B,,F]3/4[B,,B,]3/4-[B,,B,E]-[B,,-B,-E]/8[B,,B,D]3/4 | %18
 (7:8:7B,,3/4B,,-B,,/8B,,3/4[B,,F,]3/8-[B,,F,]3/2D,3/4 | %19
 (7:8:6[F,A,E]3/2-[F,-A,-E]3/8[F,A,E]3/4[F,A,F]3/8-[F,-A,-F]3/2[F,A,F]3/4 | %20
 [B,,B,]2- [B,,B,]/4 z/4 z/ z z2 | %21
 (7:8:7[B,,B,]3/2-[B,,B,]3/8[B,,B,]3/4[B,,B,]3/4[C,A,]-[C,A,]/8[D,B,]3/4 | z2 z2 z .[E,E] | %23
 .[F,DF]2 .[F,B,F][F,B,F]3/4 z/4 z .[F,A,F] |[M:5/8] [B,,B,]-[B,,B,]- [B,,B,]3 |] %25
V:3
 x6 | x6 | z FE, E,2 B,, | x6 | x6 | x6 | z FE, D,2 B,, | x6 |[M:25/32] x25/4 |[M:3/4] x6 | x6 | %11
 x6 | x6 | x5[K:bass] x55/64 | [E,B,]2- [E,B,]/4 z/4 z/ z z .[E,B,] | x6 | x6 | x6 | x6 | x6 | %20
 z2 (3:2:2B,,3/2B,,3/2- B,,-B,,/4 z/4 z/ | x6 | (3:2:4[E,B,]4- [E,B,]/ [E,B,]3 z3/2 | x6 | %24
[M:5/8] x5 |] %25
V:4
 x6 | x6 | x6 | x6 | x6 | x6 | x6 | x6 |[M:25/32] x25/4 |[M:3/4] x6 | x6 | x6 | x6 | x6 | %14
 G2- G/4 z/4 z/ z z .[Gc] | x6 | x6 | x6 | x6 | x6 | z2 (3:2:2B,3/2B,3/2- B,-B,/4 z/4 z/ | x6 | %22
 (3:2:4[EG]4- [EG]/ [Ge]3 z3/2 | x6 |[M:5/8] x5 |] %25

